X:1
T:Title
%%score { ( 1 3 ) | ( 2 4 ) }
L:1/8
M:4/4
K:Eb
V:1 treble nm="Grand Piano"
V:3 treble 
V:2 bass 
V:4 bass 
V:1
 z4 z2[Q:1/4=100] [G,E]>[A,EF] | [B,EG]2 [A,DF]>[A,DF] [G,E]2 [B,EG]>[B,FA] | %2
 [B,GB]2 [FA]>[FA] G2 E>F | G2 F>E A2 G>G | F2 =A>c [B,DB]2 [G,E]>[A,EF] | %5
 [B,EG]2 [A,DF]>[A,DF] [G,E]2 [B,EG]>[B,FA] | [B,GB]2 [FA]>[FA] G2 G>G | F2 B>B =A2 B>c | %8
[M:3/4] d2 d>c [B,DB]2 |[M:1/4] A>A |[M:4/4] G6 z2 | A6 z2 | d6 z2 | e6 z2 | e6 z2 | %15
 B6[K:bass][K:treble] z2 | F6 z2 |[M:7/8] E-E-E- E- E3 |] %18
V:2
 z4 z2 E,>E, | E,2 B,,>B,, E,2 E,>E, | E,2 [B,,B,]>[B,,B,] [E,B,E]2 [E,G,]>[E,A,E] | %3
 [E,B,E]2 [E,A,E]>[E,G,] [E,CE]2 [E,B,E]>[E,B,E] | [F,B,D]2 [F,CE]>[F,=A,E] B,,2 E,>E, | %5
 E,2 B,,>B,, E,2 E,>E, | E,2 [B,,B,]>[B,,B,] [E,B,E]2 [E,B,E]>[E,B,E] | %7
 [F,B,D]2 [F,B,D]>[F,B,D] [F,C]2 [F,B,D]>[F,=A,E] |[M:3/4] [F,B,F]2 [F,=A,F]>[F,A,E] B,,2 | %9
[M:1/4][K:treble] F>F |[M:4/4] E6[K:bass][K:treble] z2 | F6[K:bass] z2[K:treble] | %12
 A6[K:bass] [B,,B,]2[K:treble] | G6[K:bass][K:treble] z2 | c6[K:bass][K:treble] z2 | %15
 G6[K:bass] [B,,B,]2 | D6 z2 |[M:7/8] z2 A,>A, G,3 |] %18
V:3
 x8 | x8 | x8 | x8 | x8 | x8 | x8 | x8 |[M:3/4] x6 |[M:1/4] x2 |[M:4/4] z2 B,>B, B,2 c>B | %11
 z2 B,>B, B,2 B>c | z2 B,>B, B,2 [Ac]>B | z2 B,>B, B,2 e>e | z2 A,>A, A,2 d>c | %15
 z2[K:bass] E,>G, B,2[K:treble] [FA]>G | z2 B,>B, B,2 [B,EG]>[A,DF] |[M:7/8] G,2 C>C B,3 |] %18
V:4
 x8 | x8 | x8 | x8 | x8 | x8 | x8 | x8 |[M:3/4] x6 |[M:1/4][K:treble] x2 | %10
[M:4/4] z2[K:bass] E,>E, E,2[K:treble] A>G | z2[K:bass] B,,>B,, B,,2 z z/[K:treble] A/ | %12
 z2[K:bass] B,,>B,, B,,2 z z/[K:treble] A/ | z2[K:bass] E,>E, E,2[K:treble] G>G | %14
 z2[K:bass] A,,>A,, A,,2[K:treble] B>A | z2[K:bass] B,,>B,, B,,2 z z/ E/ | %16
 z2 B,,>B,, B,,2 B,,>B,, |[M:7/8] E,-E,-E,- E,- E,3 |] %18

